src/parts/graphicShirt/Deer.svg

<svg>
  <g
    id="Clothing/Graphic-Shirt"
    transform="translate(0.000000, 170.000000)"
  >
    <defs>
      <path
        id="react-path-1153"
        d="M165.624032,29.2681342 C202.760022,32.1373245 232,63.1798426 232,101.051724 L232,110 L32,110 L32,101.051724 C32,62.8348009 61.7752018,31.5722494 99.3929298,29.1967444 C99.1342224,30.2735458 99,31.3767131 99,32.5 C99,44.3741221 113.998461,54 132.5,54 C151.001539,54 166,44.3741221 166,32.5 C166,31.4015235 165.871641,30.3222877 165.624025,29.2681336 Z"
      />
    </defs>
    <mask
      id="react-mask-1154"
      fill="white"
    >
      <use href="#react-path-1153" />
    </mask>
    <use
      id="Clothes"
      fill="#E6E6E6"
      fill-rule="evenodd"
      href="#react-path-1153"
    />
    <g
      id="Color/Palette/"
      mask="url(#react-mask-1154)"
      fill-rule="evenodd"
      fill="var(--avataaar-shirt-color)"
    >
      <rect
        id="Color"
        x="0"
        y="0"
        width="264"
        height="110"
      />
    </g>
    <g
      id="Clothing/Graphic/Deer"
      fill-rule="evenodd"
      fill="#FFFFFF"
    >
      <g
        id="oh,-deer!"
        transform="translate(77.000000, 58.000000)"
      >
        <path d="M76.9598206,16.2351328 C77.3545748,17.6603319 74.7317873,18.9054413 73.8540158,19.6535687 C72.3474717,20.9370645 70.7886986,22.2879408 69.0287021,23.2010483 C68.2808959,23.5889965 67.4755973,23.9042554 66.6674645,24.1357992 C65.420446,24.4927115 65.5625576,24.2427912 65.0864232,25.3008688 C64.2491394,27.1617948 64.0321258,29.6352706 63.2754123,31.6133978 C61.5708838,36.0670427 57.5083567,46.4138243 51.0084754,41.8719723 C48.9403681,40.4271716 47.8107637,37.6249608 46.6471497,35.4361165 C45.312678,32.9242543 44.0348889,29.927661 43.2668389,27.1858884 C42.8923285,25.8501217 43.1299908,25.3952014 42.1376394,24.7708091 C41.514535,24.3787772 40.4582132,24.2775023 39.7537287,23.9908291 C38.2544724,23.3807295 36.9414591,22.5546042 35.6656945,21.5602318 C34.4279881,20.5948534 29.5561137,16.6096049 33.5340216,15.8696448 C35.3592032,15.5298839 37.7512114,15.6560692 39.6006855,15.7495851 C41.6283052,15.8520851 43.6741443,16.3196647 45.4774626,17.2854514 C47.3184343,18.2720648 46.7783296,17.9862083 48.6865108,17.4345052 C45.3653119,16.3090472 42.0384447,14.4370952 39.8031236,11.6536693 C38.5961879,10.1508806 35.8037572,4.00047299 37.9022302,2.58875006 C40.4225841,0.893212425 40.6331197,7.93508406 41.3416529,9.15569148 C42.9344356,11.8995059 45.8495437,12.9351233 48.3844732,14.454655 C46.6435058,12.7868862 45.3446632,10.9496454 44.7106272,8.58683697 C44.4357163,7.56224546 43.6846711,5.0981621 44.1919809,4.10133952 C44.7207491,3.06123008 45.9641237,2.99507471 46.6499838,3.88041325 C47.2678248,4.67754462 47.1123524,6.5115185 47.3241026,7.47240483 C47.6739156,9.06095045 48.2451958,10.282783 49.3059712,11.5127828 C50.8113007,13.2585495 52.7227209,14.6866071 54.9750468,15.2395353 C60.1015883,16.4977125 61.8947847,11.1317769 62.5826693,6.99461605 C62.7510977,5.98186717 62.5033135,4.30184746 63.6329179,3.81589134 C65.0001846,3.22743524 65.5293577,4.56156854 65.5690356,5.59718594 C65.6564888,7.91058207 64.5127138,11.4535697 63.4029483,13.4419061 C66.1929497,11.7100238 68.4064075,8.96375923 69.3015886,5.75399867 C69.6327773,4.56646894 69.3639395,1.9182123 70.4757294,1.25134983 C72.0154733,0.327216479 72.5049686,2.16772422 72.45112,3.27317229 C72.1324825,9.78825116 67.1525061,15.7132405 60.9627599,17.341806 C62.4810453,18.1005509 62.2814414,18.2716565 63.8114683,17.3650829 C64.6961227,16.840332 65.656084,16.4352324 66.6375037,16.1342663 C68.1076089,15.6834297 69.6931038,15.453111 71.2182722,15.3183501 C72.4377591,15.2105413 76.4921887,14.5012087 76.9598206,16.2351328 Z M58.8595294,24.6214062 C59.7193936,22.4825816 56.3639386,22.4048657 56.0375022,24.7163015 C55.622102,27.6609177 58.7932497,27.8924294 58.8595294,24.6214062 Z M56.9297708,33.6367531 C57.5886752,31.4414328 53.4036129,31.5246305 53.0344702,33.4664333 C52.5980925,35.7582944 56.4400387,35.1974948 56.9297708,33.6367531 Z M51.7024587,27 C54.0260737,27 54.9736078,23.9354052 52.6986912,23.1385385 C49.8083182,22.1255453 48.8835101,27 51.7024587,27 Z" />
      </g>
    </g>
  </g>
</svg>

<svg>
  <g id="Clothing/Graphic-Shirt" transform="translate(0 170)">
    <defs>
      <path id="react-path-1153" d="M165.624 29.268C202.76 32.138 232 63.18 232 101.052V110H32v-8.948c0-38.217 29.775-69.48 67.393-71.855A14.107 14.107 0 0 0 99 32.5C99 44.374 113.998 54 132.5 54c18.502 0 33.5-9.626 33.5-21.5 0-1.098-.128-2.178-.376-3.232Z"/>
    </defs>
    <mask id="react-mask-1154" fill="#fff">
      <use href="#react-path-1153"/>
    </mask>
    <use id="Clothes" fill="#E6E6E6" fill-rule="evenodd" href="#react-path-1153"/>
    <g id="Color/Palette/" fill="var(--avataaar-shirt-color)" fill-rule="evenodd" mask="url(#react-mask-1154)">
      <path id="Color" d="M0 0h264v110H0z"/>
    </g>
    <g id="Clothing/Graphic/Deer" fill="#FFF" fill-rule="evenodd">
      <path id="oh,-deer!" d="M76.96 16.235c.395 1.425-2.228 2.67-3.106 3.419-1.507 1.283-3.065 2.634-4.825 3.547-.748.388-1.553.703-2.362.935-1.247.357-1.104.107-1.58 1.165-.838 1.86-1.055 4.334-1.812 6.312-1.704 4.454-5.767 14.8-12.267 10.259-2.068-1.445-3.197-4.247-4.36-6.436-1.335-2.512-2.613-5.508-3.381-8.25-.375-1.336-.137-1.79-1.13-2.415-.622-.392-1.679-.493-2.383-.78-1.5-.61-2.813-1.436-4.088-2.43-1.238-.966-6.11-4.951-2.132-5.691 1.825-.34 4.217-.214 6.067-.12 2.027.102 4.073.57 5.876 1.535 1.841.987 1.301.701 3.21.15-3.322-1.126-6.649-2.998-8.884-5.781-1.207-1.503-4-7.654-1.9-9.065 2.52-1.696 2.73 5.346 3.439 6.567 1.592 2.744 4.508 3.78 7.042 5.299-1.74-1.668-3.04-3.505-3.673-5.868-.275-1.025-1.026-3.489-.519-4.486.529-1.04 1.772-1.106 2.458-.22.618.797.462 2.63.674 3.591.35 1.589.921 2.81 1.982 4.04 1.505 1.747 3.417 3.175 5.669 3.728 5.127 1.258 6.92-4.108 7.608-8.245.168-1.013-.08-2.693 1.05-3.18 1.367-.588 1.896.747 1.936 1.782.087 2.314-1.056 5.857-2.166 7.845 2.79-1.732 5.003-4.478 5.899-7.688.33-1.188.062-3.836 1.174-4.503 1.54-.924 2.029.917 1.975 2.022-.319 6.515-5.298 12.44-11.488 14.069 1.518.759 1.318.93 2.848.023.885-.525 1.845-.93 2.827-1.23 1.47-.452 3.055-.682 4.58-.817 1.22-.107 5.274-.817 5.742.917Zm-18.1 8.386c.86-2.138-2.496-2.216-2.822.095-.416 2.945 2.755 3.176 2.822-.095Zm-1.93 9.016c.659-2.196-3.526-2.112-3.896-.17-.436 2.291 3.406 1.73 3.896.17ZM51.702 27c2.324 0 3.272-3.065.997-3.861-2.89-1.013-3.815 3.861-.997 3.861Z" transform="translate(77 58)"/>
    </g>
  </g>
</svg>
